X: 9023
T: Da Boannie Polka
R: barndance
M: 4/4
K: Dmajor
F2 (3AAA G2 (3BBB|A>df>^e f2 d2|B2 (3eee e2 c2|A>dc>d (3efe d2||
B2 G2- G>d (3dcB|A2 F2- F>D (3FGA|G2 E2 E>FG>E|F2 D>C D>Fd>c|
B2 G2- G>dc>B|A2 f2- f>^ef>a|g2 e2 e>dc>e|d2 f2 d4||

